public/icons/tokens/sushi.svg

<svg width="256" height="256" viewBox="0 0 256 256" fill="none" xmlns="http://www.w3.org/2000/svg">
<path d="M128 256C198.692 256 256 198.692 256 128C256 57.3075 198.692 0 128 0C57.3075 0 0 57.3075 0 128C0 198.692 57.3075 256 128 256Z" fill="white"/>
<path fill-rule="evenodd" clip-rule="evenodd" d="M218.182 154.764L182.303 204.777C176.66 212.719 165.711 216.543 151.477 215.372C133.116 213.856 108.774 204.153 85.4441 187.418C62.1138 170.674 45.1011 150.73 37.6893 133.843C32.0462 120.754 32.1298 109.199 37.8571 101.248L73.6526 51.2349C79.3799 43.2925 90.3288 39.4686 104.479 40.6393C122.84 42.1554 147.265 51.8667 170.595 68.6021C193.925 85.3376 210.938 105.282 218.266 122.169C223.993 135.258 223.825 146.821 218.182 154.764ZM83.2546 58.1078C86.9605 52.97 94.3719 51.6395 103.552 52.3975C120.313 53.7788 142.38 62.9084 163.689 78.1868C184.998 93.4567 200.748 111.456 207.486 126.869C211.108 135.317 212.286 142.762 208.58 147.9L213.382 151.328L208.58 147.9L172.701 197.912C169.079 203.041 161.667 204.381 152.487 203.614C135.726 202.241 113.575 193.103 92.266 177.833C70.9571 162.555 55.2067 144.556 48.553 129.151C44.8471 120.695 43.7532 113.25 47.459 108.12L83.2546 58.1078Z" fill="white"/>
<path fill-rule="evenodd" clip-rule="evenodd" d="M78.5276 55.8866C90.2348 39.547 129.904 47.9359 167.131 74.6015C204.359 101.275 225.078 136.203 213.371 152.543L177.576 202.556C165.868 218.895 126.114 210.506 88.8862 183.833C51.6589 157.159 30.9409 122.239 42.6481 105.899L78.5276 55.8866Z" fill="white"/>
<path fill-rule="evenodd" clip-rule="evenodd" d="M75.9449 52.8608C81.1529 45.5696 91.2214 42.3585 104.241 43.4001C122.209 44.8757 145.992 54.5102 168.907 70.8286C191.736 87.2338 208.489 106.764 215.607 123.256C220.815 135.235 220.988 145.824 215.78 153.115L180.019 203.112C174.811 210.403 164.655 213.615 151.722 212.573C133.754 211.011 109.884 201.463 87.056 185.058C64.1408 168.74 47.4748 149.209 40.2704 132.717C35.0624 120.738 34.8895 110.149 40.0975 102.858L75.9449 52.8608ZM210.833 149.556V149.47C214.999 143.741 214.131 135.234 210.051 125.686C203.194 109.976 187.136 91.4868 165.263 75.8628C143.476 60.2388 120.821 50.9514 103.721 49.5626C93.3049 48.6946 85.0599 50.6045 80.8935 56.4201L80.7189 56.7668C76.8129 62.5824 77.6819 70.8284 81.7615 80.2028C88.6187 96.0004 104.677 114.489 126.464 130.113C148.25 145.737 170.904 155.025 188.004 156.414C198.246 157.195 206.318 155.372 210.572 149.904L210.833 149.47V149.556ZM155.108 90.0119C166.044 97.8239 174.116 107.111 177.501 115.01C179.497 119.437 180.018 123.343 178.021 126.034C176.112 128.725 172.207 129.506 167.433 129.072C158.839 128.378 147.555 123.69 136.619 115.878C125.682 108.066 117.609 98.8652 114.223 90.9664C112.314 86.5396 111.793 82.6334 113.703 79.9426C115.613 77.2518 119.519 76.4709 124.38 76.8181C132.886 77.5993 144.258 82.1999 155.108 90.0119Z" fill="#0E0F23"/>
<path d="M217.242 127.443C216.767 126.069 216.222 124.672 215.606 123.256C208.489 106.764 191.735 87.2338 168.907 70.8286C145.992 54.5102 122.209 44.8757 104.241 43.4001C91.2209 42.3585 81.1524 45.5696 75.9444 52.8608L40.097 102.858C34.889 110.149 35.0619 120.738 40.2699 132.717C45.0308 143.615 53.9235 155.841 66.0209 167.589C67.0872 167.484 68.1529 167.317 69.2176 167.083C75.662 165.644 81.8415 159.926 87.9947 154.231C95.9308 146.887 103.823 139.583 112.184 141.555C118.038 142.857 122.693 149.037 127.473 155.382C129.497 158.068 131.542 160.784 133.711 163.172C140.655 171.202 148.293 174.701 156.018 173.054C164.854 171.314 171.576 163.559 177.829 154.807C162.429 151.315 144.16 142.804 126.463 130.113C104.676 114.489 88.6183 96.0004 81.761 80.2028C77.6814 70.8284 76.8124 62.5824 80.7184 56.7668L80.893 56.4201C85.0595 50.6045 93.3044 48.6946 103.72 49.5626C120.82 50.9514 143.475 60.2388 165.262 75.8628C187.106 91.4658 203.15 109.926 210.023 125.623C210.362 125.639 210.704 125.665 211.049 125.701C213.513 125.964 215.54 126.569 217.242 127.443Z" fill="url(#paint0_linear_1765_1887)"/>
<path d="M177.501 115.01C174.115 107.111 166.044 97.8239 155.107 90.0119C144.257 82.1999 132.886 77.5993 124.38 76.8181C119.519 76.4709 115.612 77.2518 113.702 79.9426C111.793 82.6334 112.313 86.5396 114.223 90.9664C117.608 98.8652 125.681 108.066 136.618 115.878C147.555 123.69 158.839 128.378 167.432 129.072C172.206 129.506 176.111 128.725 178.021 126.034C180.017 123.343 179.497 119.437 177.501 115.01Z" fill="url(#paint1_linear_1765_1887)"/>
<path fill-rule="evenodd" clip-rule="evenodd" d="M179.38 163.276C186.151 164.405 192.4 164.666 197.608 163.798C198.303 163.711 198.824 163.016 198.738 162.322C198.564 161.628 197.955 161.107 197.261 161.194C192.227 162.062 186.324 161.801 179.814 160.672C179.12 160.586 178.426 161.106 178.34 161.801C178.253 162.495 178.686 163.19 179.38 163.276ZM169.137 161.02C170.873 161.454 172.523 161.888 174.259 162.235C174.953 162.408 175.649 161.975 175.736 161.28C175.909 160.586 175.474 159.892 174.779 159.718C173.13 159.371 171.482 158.936 169.832 158.502C169.138 158.242 168.357 158.676 168.183 159.37C168.009 160.065 168.443 160.76 169.137 161.02ZM72.1823 78.8202C77.0431 98.6974 96.1398 117.273 111.503 130.466C112.024 130.987 112.892 130.901 113.326 130.38C113.76 129.772 113.759 128.99 113.151 128.556C98.2217 115.623 79.4735 97.5688 74.7863 78.2124C74.6127 77.518 73.8312 77.0843 73.1368 77.2579C72.4424 77.4315 72.0087 78.1258 72.1823 78.8202ZM71.0532 70.8344C71.0532 71.7024 71.141 72.6577 71.2278 73.5257C71.3146 74.2201 72.0084 74.7407 72.7028 74.6539C73.3972 74.5671 73.9186 73.959 73.8318 73.2646C73.745 72.3966 73.6572 71.5291 73.6572 70.7479C73.6572 69.9667 73.05 69.4459 72.2688 69.4459C71.5744 69.5327 71.0532 70.14 71.0532 70.8344Z" fill="white"/>
<defs>
<linearGradient id="paint0_linear_1765_1887" x1="107.844" y1="43.1433" x2="132.068" y2="165.096" gradientUnits="userSpaceOnUse">
<stop stop-color="#27B0E6"/>
<stop offset="0.52" stop-color="#C26BB3"/>
<stop offset="1" stop-color="#FA52A0"/>
</linearGradient>
<linearGradient id="paint1_linear_1765_1887" x1="107.844" y1="43.1433" x2="132.068" y2="165.096" gradientUnits="userSpaceOnUse">
<stop stop-color="#27B0E6"/>
<stop offset="0.52" stop-color="#C26BB3"/>
<stop offset="1" stop-color="#FA52A0"/>
</linearGradient>
</defs>
</svg>

<svg width="256" height="256" fill="none" xmlns="http://www.w3.org/2000/svg"><path d="M128 256c70.692 0 128-57.308 128-128C256 57.308 198.692 0 128 0 57.308 0 0 57.307 0 128c0 70.692 57.307 128 128 128Z" fill="#fff"/><path fill-rule="evenodd" clip-rule="evenodd" d="m218.182 154.764-35.879 50.013c-5.643 7.942-16.592 11.766-30.826 10.595-18.361-1.516-42.703-11.219-66.033-27.954-23.33-16.744-40.343-36.688-47.755-53.575-5.643-13.089-5.56-24.644.168-32.595l35.796-50.013c5.727-7.943 16.676-11.766 30.826-10.596 18.361 1.516 42.786 11.228 66.116 27.963 23.33 16.736 40.343 36.68 47.671 53.567 5.727 13.089 5.559 24.652-.084 32.595ZM83.255 58.108c3.706-5.138 11.117-6.468 20.297-5.71 16.761 1.38 38.828 10.51 60.137 25.789 21.309 15.27 37.059 33.269 43.797 48.682 3.622 8.448 4.8 15.893 1.094 21.031l4.802 3.428-4.802-3.428-35.879 50.012c-3.622 5.129-11.034 6.469-20.214 5.702-16.761-1.373-38.912-10.511-60.221-25.781-21.309-15.278-37.06-33.277-43.713-48.682-3.706-8.456-4.8-15.901-1.094-21.031l35.796-50.012Z" fill="#fff"/><path fill-rule="evenodd" clip-rule="evenodd" d="M78.528 55.887c11.707-16.34 51.376-7.951 88.603 18.715 37.228 26.673 57.947 61.601 46.24 77.941l-35.795 50.013c-11.708 16.339-51.462 7.95-88.69-18.723-37.227-26.674-57.945-61.594-46.238-77.934l35.88-50.012Z" fill="#fff"/><path fill-rule="evenodd" clip-rule="evenodd" d="M75.945 52.86c5.208-7.29 15.276-10.502 28.296-9.46 17.968 1.476 41.751 11.11 64.666 27.429 22.829 16.405 39.582 35.935 46.7 52.427 5.208 11.979 5.381 22.568.173 29.859l-35.761 49.997c-5.208 7.291-15.364 10.503-28.297 9.461-17.968-1.562-41.838-11.11-64.666-27.515-22.915-16.318-39.581-35.849-46.786-52.341-5.208-11.979-5.38-22.568-.173-29.859l35.848-49.997Zm134.888 96.696v-.086c4.166-5.729 3.298-14.236-.782-23.784-6.857-15.71-22.915-34.2-44.788-49.823-21.787-15.624-44.442-24.912-61.542-26.3-10.416-.868-18.661 1.041-22.828 6.857l-.174.347c-3.906 5.815-3.037 14.061 1.043 23.436 6.857 15.797 22.915 34.286 44.702 49.91 21.786 15.624 44.44 24.912 61.54 26.301 10.242.781 18.314-1.042 22.568-6.51l.261-.434v.086Zm-55.725-59.544c10.936 7.812 19.008 17.099 22.393 24.998 1.996 4.427 2.517 8.333.52 11.024-1.909 2.691-5.814 3.472-10.588 3.038-8.594-.694-19.878-5.382-30.814-13.194-10.937-7.812-19.01-17.013-22.396-24.912-1.909-4.426-2.43-8.333-.52-11.023 1.91-2.691 5.816-3.472 10.677-3.125 8.506.781 19.878 5.382 30.728 13.194Z" fill="#0E0F23"/><path d="M217.242 127.443a58.053 58.053 0 0 0-1.636-4.187c-7.117-16.492-23.871-36.022-46.699-52.427-22.915-16.319-46.698-25.953-64.666-27.429-13.02-1.041-23.089 2.17-28.297 9.46l-35.847 49.998c-5.208 7.291-5.035 17.88.173 29.859 4.76 10.898 13.653 23.124 25.75 34.872a27.374 27.374 0 0 0 3.198-.506c6.444-1.439 12.623-7.157 18.777-12.852 7.936-7.344 15.828-14.648 24.189-12.676 5.854 1.302 10.509 7.482 15.289 13.827 2.024 2.686 4.069 5.402 6.238 7.79 6.944 8.03 14.582 11.529 22.307 9.882 8.836-1.74 15.558-9.495 21.811-18.247-15.4-3.492-33.669-12.003-51.366-24.694C104.676 114.489 88.618 96 81.761 80.203c-4.08-9.375-4.949-17.62-1.043-23.436l.175-.347c4.166-5.816 12.411-7.725 22.827-6.857 17.1 1.388 39.755 10.676 61.542 26.3 21.844 15.603 37.888 34.063 44.761 49.76.339.016.681.042 1.026.078 2.464.263 4.491.868 6.193 1.742Z" fill="url(#a)"/><path d="M177.501 115.01c-3.386-7.899-11.457-17.186-22.394-24.998-10.85-7.812-22.221-12.413-30.727-13.194-4.861-.347-8.768.434-10.678 3.125-1.909 2.69-1.389 6.597.521 11.023 3.385 7.9 11.458 17.1 22.395 24.912 10.937 7.812 22.221 12.5 30.814 13.194 4.774.434 8.679-.347 10.589-3.038 1.996-2.691 1.476-6.597-.52-11.024Z" fill="url(#b)"/><path fill-rule="evenodd" clip-rule="evenodd" d="M179.38 163.276c6.771 1.129 13.02 1.39 18.228.522.695-.087 1.216-.782 1.13-1.476-.174-.694-.783-1.215-1.477-1.128-5.034.868-10.937.607-17.447-.522-.694-.086-1.388.434-1.474 1.129-.087.694.346 1.389 1.04 1.475Zm-10.243-2.256c1.736.434 3.386.868 5.122 1.215.694.173 1.39-.26 1.477-.955a1.295 1.295 0 0 0-.957-1.562c-1.649-.347-3.297-.782-4.947-1.216-.694-.26-1.475.174-1.649.868-.174.695.26 1.39.954 1.65Zm-96.955-82.2c4.861 19.877 23.958 38.453 39.321 51.646.521.521 1.389.435 1.823-.086.434-.608.433-1.39-.175-1.824-14.93-12.933-33.677-30.987-38.365-50.344-.173-.694-.955-1.128-1.65-.954a1.294 1.294 0 0 0-.954 1.562Zm-1.129-7.986c0 .868.088 1.824.175 2.692.087.694.78 1.215 1.475 1.128.694-.087 1.216-.695 1.129-1.39-.087-.867-.175-1.735-.175-2.516 0-.781-.607-1.302-1.388-1.302a1.403 1.403 0 0 0-1.216 1.388Z" fill="#fff"/><defs><linearGradient id="a" x1="107.844" y1="43.143" x2="132.068" y2="165.096" gradientUnits="userSpaceOnUse"><stop stop-color="#27B0E6"/><stop offset=".52" stop-color="#C26BB3"/><stop offset="1" stop-color="#FA52A0"/></linearGradient><linearGradient id="b" x1="107.844" y1="43.143" x2="132.068" y2="165.096" gradientUnits="userSpaceOnUse"><stop stop-color="#27B0E6"/><stop offset=".52" stop-color="#C26BB3"/><stop offset="1" stop-color="#FA52A0"/></linearGradient></defs></svg>
